X:5162
T:Po Dorozi Zhuk, Zhuk, Po Dorozi Chorniy
O:england
S:A. Humenyuk
Q:144
M:2/4
L:1/8
K:DMix
D D D F | A2 D2 | B B B B | A2 F2 |: \
G G G G | F F F F | E E E E | D2 D2 :|
